// NOTE: Shader automatically converted from Godot Engine 4.6.stable.mono's StandardMaterial3D.

shader_type spatial;
render_mode cull_disabled, unshaded;
stencil_mode write, 1;

void fragment()
{
	ALPHA = 1.;
}
